X:1
T:Ishpeming, CMD
T:Gerhard Theodore Alexis, 1924
T:Ishpeming, CMD
T:Courtesy of the Cyber Hymnal&amp;#8482;
C:Gerhard Theodore Alexis, 1924
Z:Courtesy of the Cyber Hymnal&#8482;
%%score ( 1 2 ) ( 3 4 )
L:1/8
M:4/4
K:Ab
V:1 treble 
V:2 treble 
V:3 bass 
V:4 bass 
V:1
 [CE]2 | [Cc]3 [DG] [EB]2 [EA]2 | [DG]2 [DF]2 [DE]2 [CE]2 | [EA]2 [CA]2 [FB]2 [EB]2 | [Ec]6 [Ec]2 | %5
 [=Ec]3 [GB] [FA]2 [Fc]2 | [FB]2 [=DA]2 [EG]2 E2 | [CF]2 [FA]2 [EG]2 [=DF]2 | E6 E2 | %9
 [DB]3 [DG] [DF]2 [DE]2 | [CA]2 [EB]2 [Ec]2 [EA]2 | [Ac]2 [Fc]2 [F=d]2 [Ad]2 | [Ge]6 [Gd]2 | %13
 [Ac]3 [=EB] [FA]2 [F=A]2 | [FB]2 [Fc]2 [Fd]2 [FB]2 | [EA]3 [EA] [EA]2 [EG]2 | [EA]6 |] %17
V:2
 x2 | x8 | x8 | x8 | x8 | x8 | x6 E2 | x8 | E6 E2 | x8 | x8 | x8 | x8 | x8 | x8 | x8 | x6 |] %17
V:3
 [A,,A,]2 | [A,,E,]3 [B,,E,] [D,G,]2 [C,A,]2 | [E,B,]2 [F,B,]2 [G,B,]2 A,2 | %3
 [C,A,]2 [F,A,]2 [D,A,]2 [E,G,]2 | [A,,A,]6 [A,,A,]2 | [C,G,]3 [=E,C] [F,C]2 [F,A,]2 | %6
 [=D,B,]2 [B,,B,]2 [E,B,]2 [G,B,]2 | A,2 [F,C]2 B,2 [B,,A,]2 | [E,G,]6 [E,G,]2 | %9
 [E,G,]3 [E,B,] [E,A,]2 [E,G,]2 | [F,A,]2 [E,G,]2 [A,,A,]2 [A,C]2 | %11
 [F,C]2 [F,A,]2 [B,,B,]2 [B,,B,]2 | [G,B,]6 [E,E]2 | [A,E]3 [G,C] [F,C]2 [E,C]2 | %14
 [D,B,]2 [C,A,]2 [B,,B,]2 [D,B,]2 | [E,C]3 [E,C] [E,B,]2 [E,D]2 | [A,,C]6 |] %17
V:4
 x2 | x8 | x6 A,2 | x8 | x8 | x8 | x8 | A,2 B,2 x4 | x8 | x8 | x8 | x8 | x8 | x8 | x8 | x8 | x6 |] %17

